modules/hawcons-filled/icons/file-txt.svg

<?xml version="1.0" encoding="UTF-8" standalone="no"?>
<svg width="32px" height="32px" viewBox="0 0 32 32" version="1.1" xmlns="http://www.w3.org/2000/svg" xmlns:xlink="http://www.w3.org/1999/xlink" xmlns:sketch="http://www.bohemiancoding.com/sketch/ns">
    <!-- Generator: Sketch 3.0.3 (7891) - http://www.bohemiancoding.com/sketch -->
    <title>icon 48 file txt</title>
    <desc>Created with Sketch.</desc>
    <defs></defs>
    <g id="Page-1" stroke="none" stroke-width="1" fill="none" fill-rule="evenodd" sketch:type="MSPage">
        <g id="icon-48-file-txt" sketch:type="MSArtboardGroup" fill="#929292">
            <path d="M8.00684834,10 C6.34621185,10 5,11.3422643 5,12.9987856 L5,20.0012144 C5,21.6573979 6.33599155,23 8.00684834,23 L24.9931517,23 C26.6537881,23 28,21.6577357 28,20.0012144 L28,12.9987856 C28,11.3426021 26.6640085,10 24.9931517,10 L8.00684834,10 L8.00684834,10 Z M10,14 L10,20 L11,20 L11,14 L13,14 L13,13 L8,13 L8,14 L10,14 L10,14 Z M16,16.5 L14,13 L15,13 L16.5,15.625 L18,13 L19,13 L17,16.5 L19,20 L18,20 L16.5,17.375 L15,20 L14,20 L16,16.5 L16,16.5 Z M22,14 L22,20 L23,20 L23,14 L25,14 L25,13 L20,13 L20,14 L22,14 L22,14 Z" id="file-txt" sketch:type="MSShapeGroup"></path>
        </g>
    </g>
</svg>

<svg width="32" height="32" viewBox="0 0 32 32" xmlns="http://www.w3.org/2000/svg"><path d="M8.007 10A3.003 3.003 0 0 0 5 12.999V20A2.996 2.996 0 0 0 8.007 23h16.986A3.003 3.003 0 0 0 28 20.001V13A2.996 2.996 0 0 0 24.993 10H8.007zM10 14v6h1v-6h2v-1H8v1h2zm6 2.5L14 13h1l1.5 2.625L18 13h1l-2 3.5 2 3.5h-1l-1.5-2.625L15 20h-1l2-3.5zm6-2.5v6h1v-6h2v-1h-5v1h2z" fill="#929292" fill-rule="evenodd"/></svg>
